Sources/FrostedUI/Resources/Icons.xcassets/upinTiltedFilled16.imageset/upin-tilted-filled-16.svg

<svg width="16" height="16" viewBox="0 0 16 16" fill="none" xmlns="http://www.w3.org/2000/svg" data-fui-icon="true">
  <path
    d="M1.21973 1.21973C1.51262 0.926833 1.98738 0.926833 2.28027 1.21973L14.7803 13.7197C15.0731 14.0126 15.0731 14.4874 14.7803 14.7803C14.4874 15.0731 14.0126 15.0731 13.7197 14.7803L11.5425 12.603C11.4049 12.4654 11.17 12.5287 11.1201 12.7168C10.7132 14.2425 8.80613 14.7549 7.68945 13.6387L5.78342 11.7326C5.66626 11.6155 5.47631 11.6155 5.35916 11.7326L3.27344 13.8184C2.98059 14.1112 2.50579 14.1111 2.21289 13.8184C1.92 13.5255 1.92 13.0507 2.21289 12.7578L4.29861 10.6721C4.41577 10.5549 4.41577 10.365 4.29861 10.2478L2.39258 8.3418C1.27632 7.22522 1.78805 5.31824 3.31348 4.91113C3.50178 4.8608 3.56491 4.62546 3.42709 4.48764L1.21973 2.28027C0.926833 1.98738 0.926834 1.51262 1.21973 1.21973ZM8.54102 1.83301C9.34157 1.03282 10.64 1.03268 11.4404 1.83301L14.1982 4.59082C14.9985 5.3913 14.9984 6.6897 14.1982 7.49023L12.636 9.0508C12.5188 9.16784 12.3289 9.16779 12.2118 9.05068L6.97971 3.81858C6.86255 3.70142 6.86255 3.51147 6.97971 3.39431L8.54102 1.83301Z"
    fill="currentColor"
  />
</svg>

<svg xmlns="http://www.w3.org/2000/svg" width="16" height="16" fill="none" data-fui-icon="true" viewBox="0 0 16 16"><path fill="currentColor" d="M1.22 1.22a.75.75 0 0 1 1.06 0l12.5 12.5a.75.75 0 0 1-1.06 1.06l-2.177-2.177a.252.252 0 0 0-.423.114c-.407 1.525-2.314 2.038-3.43.922l-1.907-1.906a.3.3 0 0 0-.424 0l-2.086 2.085a.75.75 0 0 1-1.06-1.06l2.086-2.086a.3.3 0 0 0 0-.424L2.393 8.342c-1.117-1.117-.605-3.024.92-3.43a.253.253 0 0 0 .114-.424L1.22 2.28a.75.75 0 0 1 0-1.06m7.321.613c.8-.8 2.099-.8 2.9 0l2.757 2.758c.8.8.8 2.099 0 2.9l-1.562 1.56a.3.3 0 0 1-.424 0L6.98 3.819a.3.3 0 0 1 0-.425z"/></svg>
